X: 568
T: Dilber Sana Ben...
C: Erol Başara
O: Turkey
F: http://compmusic.upf.edu/node/140
N: ussak--sarki--muasser--dilber_sana--erol_basara
N: makam= ussak
N: form= sarki
N: usul= muasser = 10/4
M: 10/4
L: 1/16
K: C _2/4B   
Q: 1/4=57
%%MIDI tuningsystem comma53
G2A2 AAA2 G2AA A2A2 BcBA B2z2 c2d2 efed d4 cBA2  | 
w:  Dil ber  sa na  ben  göz le ri  mes tan  de me dim  *  mi   Fet tan  de me dim  *  mi   SAZ  | 
G2A2 AAA2 G2AA A2A2 BcBA B2z2 c2d2 efed d4 Bcd2  | 
w:  Dil ber  sa na  ben  göz le ri  mes tan  de me dim  *  mi   Fet tan  de me dim  *  mi   SAZ  | 
c2d2 ddd2 c3/2e/dc B3/2A/G2 dcBA B2z2 G2c2 BAG2 A3e/f/ e/d/d/c/d2  | 
w:  Ef gan  e de rek  ben *  de  bu  gir *  yan  de me dim  *  mi   Nâ lân  de me dim  mi   SAZ  | 
c2d2 ddd2 c3/2e/dc B3/2A/G2 dcBA B2z2 G2c2 BAG2 A3g ^3/4fga2  | 
w:  Ef gan  e de rek  ben *  de  bu  gir *  yan  de me dim  *  mi   Nâ lân  de me dim  mi   SAZ  | 
g2a2 aaa2 g2ag f3/2e/d2 cdcB A2z2 A2ag fedc d4 ^3/4fga2  | 
w:  Mef tûn  o la lı  sen  me hi tâ *  bâ na  gö nül *  den   Ah  ne  ge lir_ el *  *  den   SAZ  | 
g2a2 aaa2 g2ag f3/2e/d2 cdcB A2z2 A2ag fedc d4 Bcd2  | 
w:  Mef tûn  o la lı  sen  me hi tâ *  bâ na  gö nül *  den   Ah  ne  ge lir_ el *  *  den   SAZ  | 
c2dd dd3 c3/2e/dc B3/2A/G2 dcBA B2z2 G2c2 BAG2 A3e/f/ e/d/d/c/d2  | 
w:  Kad di mi  hi lâl  ey *  le di  dev *  ran  de me dim  *  mi   Hic rân  de me dim  mi   SAZ  | 
c2dd dd3 c3/2e/dc B3/2A/G2 dcBA B2z2 G2c2 BAG2 A4 z4  | 
w:  Kad di mi  hi lâl  ey *  le di  dev *  ran  de me dim  *  mi   Hic rân  de me dim  mi    | 
|


